svg/monochrome/comment-alt-message.svg

<svg xmlns="http://www.w3.org/2000/svg" viewBox="0 0 24 24"><path class="uim-primary" d="M17 9H7a1 1 0 0 1 0-2h10a1 1 0 0 1 0 2zm0 4H7a1 1 0 0 1 0-2h10a1 1 0 0 1 0 2z"/><path class="uim-tertiary" d="M19 2H5a3.003 3.003 0 0 0-3 3v10a3.003 3.003 0 0 0 3 3h11.586l3.707 3.707A1 1 0 0 0 22 21V5a3.003 3.003 0 0 0-3-3Zm-2 11H7a1 1 0 0 1 0-2h10a1 1 0 0 1 0 2Zm0-4H7a1 1 0 0 1 0-2h10a1 1 0 0 1 0 2Z"/></svg>

<svg xmlns="http://www.w3.org/2000/svg" viewBox="0 0 24 24"><path class="uim-primary" d="M17 9H7A1 1 0 0 1 7 7H17a1 1 0 0 1 0 2zM17 13H7a1 1 0 0 1 0-2H17a1 1 0 0 1 0 2z"/><path class="uim-tertiary" d="M19,2H5A3.00328,3.00328,0,0,0,2,5V15a3.00328,3.00328,0,0,0,3,3H16.58594l3.707,3.707A.99991.99991,0,0,0,22,21V5A3.00328,3.00328,0,0,0,19,2ZM17,13H7a1,1,0,0,1,0-2H17a1,1,0,0,1,0,2Zm0-4H7A1,1,0,0,1,7,7H17a1,1,0,0,1,0,2Z"/></svg>
